X: 40
T: DA SCALLOWA LASSES
S: Colin Clark, Cullivoe
R: reel
B: Haand me doon da fiddle, 1979
Z: 2012 John Chambers <jc:trillian.mit.edu>
M: C
L: 1/8
K: Am
|: vAua-a(v^f e)fe(ud | cd)e(u^f ga)gd | ve(ua-a)(v^fe)fe(ud |1 cA)BG A2BG :|2 cABG A2A2 |]
|: BE (3EEE c2cA | ded(uB g^f)ed | veua-a(vg e)^fe(d |cA)BG A2A2 :|
%%begintext align
Dis is wan o' da auldest Shetland t\"uns an wis fun aa ower Shetland.
Dis wye o' him comes fae da Midbrake Papers an seems to be da auldest
een o' da lot.
%%endtext

%%sep 2 1 500
%%sep 1 1 500

